X:1
T:Padang, 11.11.11.11
T:Padang, 11.11.11.11
T:Frank Moore Jeffery, 1911
T:Public Domain Courtesy of the Cyber Hymnal™
C:Frank Moore Jeffery, 1911
Z:Public Domain
Z:Courtesy of the Cyber Hymnal™
%%score 1 ( 2 3 )
L:1/8
Q:1/4=110
M:4/4
K:C
V:1 treble 
V:2 bass 
V:3 bass 
V:1
 [EG]3 [EG] [FG]2 [FG]2 x | [EG]4 [EG]4 | [FA]3 [FA] [GA]2 [GA]2 x | ([FA]4 [GB]4) x8 | %4
 [Ec]3 [EA] [CE]2 [^CA]2 x | [EG]4 [DF]4 x4 | [^Fd]2 [Fc]2 [FA]3 [FB] x | [DG]8 | %8
 [EG]3 [Ec] [EB]2 [EA]2 x | ([FA]4 [DG]4) | [EG]3 [Ec] [EB]2 [EA]2 x | [FA]4 [FG]4 | %12
 [EG]2 [CA]2 [E^GB]2 [EAc]2 | [Af]2 [Ae]2 [Ad]2 [Ac]2 | [Gc]4 [FGd]4 | [EGc]8 |] x8 |] %17
V:2
 C3 z C [D,G,-B,]2 [G,,G,B,]2 | [G,C]4 [G,C]4 | C3 z [F,C] [E,^C]2 [A,,E,C]2 | %3
 D8 ([F,,D,]2 G,4) [G,,G,]2 | C3 z C [E,A,]2 [A,,A,]2 | A,4 [A,,D,]2 A,4 [A,,D,]2 | %6
 [D,A,]2 [D,A,]2 C3 z D | [G,B,]8 | C3 z C [C,C]2 [G,,C]2 | B,4 B,4 | C3 z C [C,C]2 [G,,C]2 | %11
 C4 B,4 | [C,C]2 [F,A,]2 [E,^G,B,]2 [A,C]2 | [D,A,D]2 [E,A,^C]2 x4 | [F,A,D]2 [^F,A,D]2 x4 | %15
 [G,CE]4 [G,,G,B,]4 |] [C,G,C]8 |] %17
V:3
 [C,G,-]2 [G,,G,]2 x5 | (C,2 G,,2) (C,2 E,2) | F,2 ^C,2 x5 | D,2- G,,2- x12 | (F,2 A,,2) x5 | %5
 D,2- D,2- x8 | x4 D,2 [D,,D,]2 x | (G,,2 F,2 E,2 D,2) | C,2 G,,2 x5 | (D,2 G,,2 G,2 G,,2) | %10
 C,2 G,,2 x5 | (D,2 G,,2) (G,2 G,,2) | x8 | x8 | x8 | x8 |] x8 |] %17

